X: 16625
T: Hangin' At The Crossroads
R: jig
M: 6/8
K: Amajor
a2a bag|aec Gce|f2f ecA|cBB B2e|
a2a bag|aec Gce|faf ecB|cAA A3:|
cAA eAA|fAA ecA|Ace agf|ecA B3|
cAA eAA|fAA ecB|Ace agf|ecB A3:|

